workspaces/osm/styles/symbols/tower_dish.svg

<svg xmlns="http://www.w3.org/2000/svg" width="14" height="14" viewBox="0 0 14 14">
  <path d="M 8.0685044,0.05217521 C 7.5102106,0.08185002 6.9559019,0.19918572 6.4298325,0.40262664 L 7.2794418,1.2495509 c 1.3855212,-0.36956358 2.9010802,-0.038252 3.9941402,1.0513543 1.09306,1.0896057 1.425423,2.6003758 1.054687,3.9815176 l 0.84961,0.8469243 C 13.903519,5.2647886 13.533641,3.0468811 12.029441,1.5474346 11.089316,0.61028076 9.8680989,0.11516028 8.6270981,0.05217521 c -0.1861501,-0.0094477 -0.3724959,-0.0098916 -0.5585937,0 z M 8.0470204,2.4021467 c -0.4702958,-0.00363 -0.9414804,0.098546 -1.375,0.3017777 L 7.4747548,3.5041217 C 8.1663982,3.3194652 8.9266412,3.4853662 9.4728016,4.0297989 10.01896,4.5742318 10.185386,5.3320738 10.000145,6.0215312 l 0.802734,0.8001974 C 11.346549,5.6693305 11.159591,4.2471506 10.207176,3.2977448 9.6119171,2.7043661 8.8308463,2.4081948 8.0470204,2.4021467 Z M 2.9981918,2.7545451 c -2.05459658,2.0481034 -2.05459658,5.3697857 0,7.4178879 2.0545969,2.048105 5.3848563,2.048105 7.4394532,0 L 7.2110825,6.9560684 8.5685044,5.6048834 7.8380356,4.8767231 6.4825668,6.2279081 Z M 2.3614731,10.933692 0.46303563,14.044922 H 7.7325668 V 12.615859 C 5.8397654,12.922925 3.836333,12.363904 2.3614731,10.933692 Z"/>
</svg>

<svg width="14" height="14" version="1.1" viewBox="0 0 14 14" xmlns="http://www.w3.org/2000/svg"><path d="m8.0685 0.052175c-0.56011 0.029685-1.1155 0.14804-1.6387 0.35045 0.2832 0.28231 0.56641 0.56462 0.84961 0.84692 1.4173-0.39755 3.0323 0.027 4.0448 1.1027 1.0057 1.0089 1.3884 2.5634 1.004 3.9301 0.2832 0.28231 0.56641 0.56462 0.84961 0.84692 0.6834-1.719 0.37835-3.7969-0.81664-5.2178-1.0279-1.263-2.6726-1.9556-4.2927-1.8593zm-0.021484 2.35c-0.47324-0.0039-0.94669 0.10069-1.375 0.30178 0.26758 0.26673 0.53516 0.53346 0.80273 0.8002 0.92707-0.27194 1.9973 0.20964 2.3997 1.09 0.21262 0.44011 0.2538 0.95672 0.12571 1.4274 0.26758 0.26673 0.53516 0.53346 0.80273 0.8002 0.57207-1.1709 0.3139-2.6926-0.65205-3.5787-0.56068-0.53576-1.3293-0.83806-2.1038-0.84084zm-5.0488 0.3524c-1.3059 1.2738-1.8451 3.2581-1.375 5.0192 0.46625 1.8833 2.0672 3.4191 3.966 3.8133 1.7179 0.38848 3.6117-0.15763 4.8485-1.4146-1.0755-1.0721-2.151-2.1442-3.2266-3.2164 0.45247-0.4504 0.90495-0.90079 1.3574-1.3512l-0.73047-0.72816c-0.45182 0.4504-0.90365 0.90079-1.3555 1.3512-1.1615-1.1578-2.3229-2.3156-3.4844-3.4734zm-0.63672 8.1791c-0.63281 1.0371-1.2656 2.0742-1.8984 3.1112h7.2695v-1.4291c-1.9287 0.32391-3.9749-0.30864-5.3711-1.6822z"/></svg>
